app/assets/images/icons/active/wi-fi.svg

<?xml version="1.0" encoding="UTF-8" standalone="no"?>
<svg width="32px" height="232px" viewBox="0 0 32 232" version="1.1" xmlns="http://www.w3.org/2000/svg" xmlns:xlink="http://www.w3.org/1999/xlink" xmlns:sketch="http://www.bohemiancoding.com/sketch/ns">
    <title>wi-fi</title>
    <description>Created with Sketch (http://www.bohemiancoding.com/sketch)</description>
    <defs></defs>
    <g id="Hotel-facilities" stroke="none" stroke-width="1" fill="none" fill-rule="evenodd" sketch:type="MSPage">
        <path d="M15.9275178,140.653 C13.5593423,140.653 11.6337203,142.524 11.6337203,144.824 C11.6337203,147.126 13.5593423,149 15.9275178,149 C18.2967224,149 20.2223444,147.126 20.2223444,144.824 C20.2223444,142.524 18.2967224,140.653 15.9275178,140.653 L15.9275178,140.653 Z M23.8934795,137.736 C23.8811292,137.727 23.8708372,137.717 23.8615745,137.708 C21.8474418,135.442 18.952319,134.143 15.9069339,134.143 C12.973731,134.143 10.1537393,135.358 8.15401536,137.484 C8.13548986,137.5 8.1118184,137.52 8.0953513,137.535 C7.72381226,137.896 7.52106103,138.377 7.52106103,138.887 C7.52106103,139.396 7.72381226,139.875 8.09329291,140.235 C8.8353418,140.956 9.66795976,141.026 10.6364313,140.408 C10.735234,140.363 10.8299198,140.301 10.9019634,140.215 C12.167872,138.78 13.9916038,137.956 15.9069339,137.956 C17.8932784,137.956 19.7499444,138.819 21.0333493,140.345 C21.0590792,140.376 21.0868674,140.406 21.1156848,140.438 C21.4872239,140.798 21.9802078,140.994 22.5040676,140.994 C23.0289565,140.994 23.5219405,140.798 23.8955379,140.436 C24.6591998,139.688 24.6591998,138.479 23.8934795,137.736 C23.8934795,137.736 24.6591998,138.479 23.8934795,137.736 L23.8934795,137.736 L23.8934795,137.736 Z M27.8610224,132.44 C24.8362212,128.984 20.4621466,127 15.8585618,127 C11.4361151,127 7.16701829,128.859 4.13912949,132.106 L3.99092555,132.241 C3.67496298,132.596 3.5,133.053 3.5,133.522 C3.5,134.046 3.71098477,134.538 4.09178656,134.904 C4.46538399,135.274 4.96968906,135.477 5.50692834,135.477 C6.02667132,135.477 6.52583042,135.284 6.89119429,134.946 L7.07439083,134.776 C9.32215057,132.322 12.5219148,130.912 15.8585618,130.912 C19.4226607,130.912 22.7675412,132.481 25.0389724,135.212 L25.1192496,135.295 C25.4897594,135.624 25.9693638,135.803 26.4685229,135.803 C27.0109082,135.803 27.51933,135.597 27.8970442,135.229 C28.6349763,134.51 28.7059907,133.362 28.0524525,132.616 L27.8610224,132.44 L27.8610224,132.44 Z M27.8610224,132.44" id="wi-fi--white" fill="#206FAC" sketch:type="MSShapeGroup"></path>
        <path d="M15.9275178,100.653 C13.5593423,100.653 11.6337203,102.524 11.6337203,104.824 C11.6337203,107.126 13.5593423,109 15.9275178,109 C18.2967224,109 20.2223444,107.126 20.2223444,104.824 C20.2223444,102.524 18.2967224,100.653 15.9275178,100.653 L15.9275178,100.653 Z M23.8934795,97.736 C23.8811292,97.727 23.8708372,97.717 23.8615745,97.708 C21.8474418,95.442 18.952319,94.143 15.9069339,94.143 C12.973731,94.143 10.1537393,95.358 8.15401536,97.484 C8.13548986,97.5 8.1118184,97.52 8.0953513,97.535 C7.72381226,97.896 7.52106103,98.377 7.52106103,98.887 C7.52106103,99.396 7.72381226,99.875 8.09329291,100.235 C8.8353418,100.956 9.66795976,101.026 10.6364313,100.408 C10.735234,100.363 10.8299198,100.301 10.9019634,100.215 C12.167872,98.78 13.9916038,97.956 15.9069339,97.956 C17.8932784,97.956 19.7499444,98.819 21.0333493,100.345 C21.0590792,100.376 21.0868674,100.406 21.1156848,100.438 C21.4872239,100.798 21.9802078,100.994 22.5040676,100.994 C23.0289565,100.994 23.5219405,100.798 23.8955379,100.436 C24.6591998,99.688 24.6591998,98.479 23.8934795,97.736 C23.8934795,97.736 24.6591998,98.479 23.8934795,97.736 L23.8934795,97.736 L23.8934795,97.736 Z M27.8610224,92.44 C24.8362212,88.984 20.4621466,87 15.8585618,87 C11.4361151,87 7.16701829,88.859 4.13912949,92.106 L3.99092555,92.241 C3.67496298,92.596 3.5,93.053 3.5,93.522 C3.5,94.046 3.71098477,94.538 4.09178656,94.904 C4.46538399,95.274 4.96968906,95.477 5.50692834,95.477 C6.02667132,95.477 6.52583042,95.284 6.89119429,94.946 L7.07439083,94.776 C9.32215057,92.322 12.5219148,90.912 15.8585618,90.912 C19.4226607,90.912 22.7675412,92.481 25.0389724,95.212 L25.1192496,95.295 C25.4897594,95.624 25.9693638,95.803 26.4685229,95.803 C27.0109082,95.803 27.51933,95.597 27.8970442,95.229 C28.6349763,94.51 28.7059907,93.362 28.0524525,92.616 L27.8610224,92.44 L27.8610224,92.44 Z M27.8610224,92.44" id="wi-fi--white" fill="#FFFFFF" sketch:type="MSShapeGroup"></path>
        <path d="M15.9275178,60.653 C13.5593423,60.653 11.6337203,62.524 11.6337203,64.824 C11.6337203,67.126 13.5593423,69 15.9275178,69 C18.2967224,69 20.2223444,67.126 20.2223444,64.824 C20.2223444,62.524 18.2967224,60.653 15.9275178,60.653 L15.9275178,60.653 Z M23.8934795,57.736 C23.8811292,57.727 23.8708372,57.717 23.8615745,57.708 C21.8474418,55.442 18.952319,54.143 15.9069339,54.143 C12.973731,54.143 10.1537393,55.358 8.15401536,57.484 C8.13548986,57.5 8.1118184,57.52 8.0953513,57.535 C7.72381226,57.896 7.52106103,58.377 7.52106103,58.887 C7.52106103,59.396 7.72381226,59.875 8.09329291,60.235 C8.8353418,60.956 9.66795976,61.026 10.6364313,60.408 C10.735234,60.363 10.8299198,60.301 10.9019634,60.215 C12.167872,58.78 13.9916038,57.956 15.9069339,57.956 C17.8932784,57.956 19.7499444,58.819 21.0333493,60.345 C21.0590792,60.376 21.0868674,60.406 21.1156848,60.438 C21.4872239,60.798 21.9802078,60.994 22.5040676,60.994 C23.0289565,60.994 23.5219405,60.798 23.8955379,60.436 C24.6591998,59.688 24.6591998,58.479 23.8934795,57.736 C23.8934795,57.736 24.6591998,58.479 23.8934795,57.736 L23.8934795,57.736 L23.8934795,57.736 Z M27.8610224,52.44 C24.8362212,48.984 20.4621466,47 15.8585618,47 C11.4361151,47 7.16701829,48.859 4.13912949,52.106 L3.99092555,52.241 C3.67496298,52.596 3.5,53.053 3.5,53.522 C3.5,54.046 3.71098477,54.538 4.09178656,54.904 C4.46538399,55.274 4.96968906,55.477 5.50692834,55.477 C6.02667132,55.477 6.52583042,55.284 6.89119429,54.946 L7.07439083,54.776 C9.32215057,52.322 12.5219148,50.912 15.8585618,50.912 C19.4226607,50.912 22.7675412,52.481 25.0389724,55.212 L25.1192496,55.295 C25.4897594,55.624 25.9693638,55.803 26.4685229,55.803 C27.0109082,55.803 27.51933,55.597 27.8970442,55.229 C28.6349763,54.51 28.7059907,53.362 28.0524525,52.616 L27.8610224,52.44 L27.8610224,52.44 Z M27.8610224,52.44" id="wi-fi--light-grey" fill="#67737B" sketch:type="MSShapeGroup"></path>
        <path d="M15.9275178,20.653 C13.5593423,20.653 11.6337203,22.524 11.6337203,24.824 C11.6337203,27.126 13.5593423,29 15.9275178,29 C18.2967224,29 20.2223444,27.126 20.2223444,24.824 C20.2223444,22.524 18.2967224,20.653 15.9275178,20.653 L15.9275178,20.653 Z M23.8934795,17.736 C23.8811292,17.727 23.8708372,17.717 23.8615745,17.708 C21.8474418,15.442 18.952319,14.143 15.9069339,14.143 C12.973731,14.143 10.1537393,15.358 8.15401536,17.484 C8.13548986,17.5 8.1118184,17.52 8.0953513,17.535 C7.72381226,17.896 7.52106103,18.377 7.52106103,18.887 C7.52106103,19.396 7.72381226,19.875 8.09329291,20.235 C8.8353418,20.956 9.66795976,21.026 10.6364313,20.408 C10.735234,20.363 10.8299198,20.301 10.9019634,20.215 C12.167872,18.78 13.9916038,17.956 15.9069339,17.956 C17.8932784,17.956 19.7499444,18.819 21.0333493,20.345 C21.0590792,20.376 21.0868674,20.406 21.1156848,20.438 C21.4872239,20.798 21.9802078,20.994 22.5040676,20.994 C23.0289565,20.994 23.5219405,20.798 23.8955379,20.436 C24.6591998,19.688 24.6591998,18.479 23.8934795,17.736 C23.8934795,17.736 24.6591998,18.479 23.8934795,17.736 L23.8934795,17.736 L23.8934795,17.736 Z M27.8610224,12.44 C24.8362212,8.984 20.4621466,7 15.8585618,7 C11.4361151,7 7.16701829,8.859 4.13912949,12.106 L3.99092555,12.241 C3.67496298,12.596 3.5,13.053 3.5,13.522 C3.5,14.046 3.71098477,14.538 4.09178656,14.904 C4.46538399,15.274 4.96968906,15.477 5.50692834,15.477 C6.02667132,15.477 6.52583042,15.284 6.89119429,14.946 L7.07439083,14.776 C9.32215057,12.322 12.5219148,10.912 15.8585618,10.912 C19.4226607,10.912 22.7675412,12.481 25.0389724,15.212 L25.1192496,15.295 C25.4897594,15.624 25.9693638,15.803 26.4685229,15.803 C27.0109082,15.803 27.51933,15.597 27.8970442,15.229 C28.6349763,14.51 28.7059907,13.362 28.0524525,12.616 L27.8610224,12.44 L27.8610224,12.44 Z M27.8610224,12.44" id="wi-fi--dark-grey" fill="#3A434E" sketch:type="MSShapeGroup"></path>
    </g>
</svg>

<svg width="32" height="232" viewBox="0 0 32 232" xmlns="http://www.w3.org/2000/svg" xmlns:sketch="http://www.bohemiancoding.com/sketch/ns"><title>wi-fi</title><g sketch:type="MSPage" fill="none"><path d="M15.928 140.653c-2.368 0-4.294 1.871-4.294 4.171 0 2.302 1.926 4.176 4.294 4.176 2.369 0 4.295-1.874 4.295-4.176 0-2.3-1.926-4.171-4.295-4.171zm7.966-2.917l-.032-.028c-2.014-2.266-4.909-3.565-7.955-3.565-2.933 0-5.753 1.215-7.753 3.341l-.059.051c-.372.361-.574.842-.574 1.352 0 .509.203.988.572 1.348.742.721 1.575.791 2.543.173.099-.045.193-.107.266-.193 1.266-1.435 3.09-2.259 5.005-2.259 1.986 0 3.843.863 5.126 2.389l.082.093c.372.36.865.556 1.388.556.525 0 1.018-.196 1.391-.558.764-.748.764-1.957-.002-2.7zm3.968-5.296c-3.025-3.456-7.399-5.44-12.002-5.44-4.422 0-8.692 1.859-11.719 5.106l-.148.135c-.316.355-.491.812-.491 1.281 0 .524.211 1.016.592 1.382.374.37.878.573 1.415.573.52 0 1.019-.193 1.384-.531l.183-.17c2.248-2.454 5.448-3.864 8.784-3.864 3.564 0 6.909 1.569 9.18 4.3l.08.083c.371.329.85.508 1.349.508.542 0 1.051-.206 1.429-.574.738-.719.809-1.867.155-2.613l-.191-.176zm0 0" id="wi-fi--white" fill="#206FAC" sketch:type="MSShapeGroup"/><path d="M15.928 100.653c-2.368 0-4.294 1.871-4.294 4.171 0 2.302 1.926 4.176 4.294 4.176 2.369 0 4.295-1.874 4.295-4.176 0-2.3-1.926-4.171-4.295-4.171zm7.966-2.917l-.032-.028c-2.014-2.266-4.909-3.565-7.955-3.565-2.933 0-5.753 1.215-7.753 3.341l-.059.051c-.372.361-.574.842-.574 1.352 0 .509.203.988.572 1.348.742.721 1.575.791 2.543.173.099-.045.193-.107.266-.193 1.266-1.435 3.09-2.259 5.005-2.259 1.986 0 3.843.863 5.126 2.389l.082.093c.372.36.865.556 1.388.556.525 0 1.018-.196 1.391-.558.764-.748.764-1.957-.002-2.7zm3.968-5.296c-3.025-3.456-7.399-5.44-12.002-5.44-4.422 0-8.692 1.859-11.719 5.106l-.148.135c-.316.355-.491.812-.491 1.281 0 .524.211 1.016.592 1.382.374.37.878.573 1.415.573.52 0 1.019-.193 1.384-.531l.183-.17c2.248-2.454 5.448-3.864 8.784-3.864 3.564 0 6.909 1.569 9.18 4.3l.08.083c.371.329.85.508 1.349.508.542 0 1.051-.206 1.429-.574.738-.719.809-1.867.155-2.613l-.191-.176zm0 0" fill="#fff" sketch:type="MSShapeGroup"/><path d="M15.928 60.653c-2.368 0-4.294 1.871-4.294 4.171 0 2.302 1.926 4.176 4.294 4.176 2.369 0 4.295-1.874 4.295-4.176 0-2.3-1.926-4.171-4.295-4.171zm7.966-2.917l-.032-.028c-2.014-2.266-4.909-3.565-7.955-3.565-2.933 0-5.753 1.215-7.753 3.341l-.059.051c-.372.361-.574.842-.574 1.352 0 .509.203.988.572 1.348.742.721 1.575.791 2.543.173.099-.045.193-.107.266-.193 1.266-1.435 3.09-2.259 5.005-2.259 1.986 0 3.843.863 5.126 2.389l.082.093c.372.36.865.556 1.388.556.525 0 1.018-.196 1.391-.558.764-.748.764-1.957-.002-2.7zm3.968-5.296c-3.025-3.456-7.399-5.44-12.002-5.44-4.422 0-8.692 1.859-11.719 5.106l-.148.135c-.316.355-.491.812-.491 1.281 0 .524.211 1.016.592 1.382.374.37.878.573 1.415.573.52 0 1.019-.193 1.384-.531l.183-.17c2.248-2.454 5.448-3.864 8.784-3.864 3.564 0 6.909 1.569 9.18 4.3l.08.083c.371.329.85.508 1.349.508.542 0 1.051-.206 1.429-.574.738-.719.809-1.867.155-2.613l-.191-.176zm0 0" fill="#67737B" sketch:type="MSShapeGroup"/><path d="M15.928 20.653c-2.368 0-4.294 1.871-4.294 4.171 0 2.302 1.926 4.176 4.294 4.176 2.369 0 4.295-1.874 4.295-4.176 0-2.3-1.926-4.171-4.295-4.171zm7.966-2.917l-.032-.028c-2.014-2.266-4.909-3.565-7.955-3.565-2.933 0-5.753 1.215-7.753 3.341l-.059.051c-.372.361-.574.842-.574 1.352 0 .509.203.988.572 1.348.742.721 1.575.791 2.543.173.099-.045.193-.107.266-.193 1.266-1.435 3.09-2.259 5.005-2.259 1.986 0 3.843.863 5.126 2.389l.082.093c.372.36.865.556 1.388.556.525 0 1.018-.196 1.391-.558.764-.748.764-1.957-.002-2.7zm3.968-5.296c-3.025-3.456-7.399-5.44-12.002-5.44-4.422 0-8.692 1.859-11.719 5.106l-.148.135c-.316.355-.491.812-.491 1.281 0 .524.211 1.016.592 1.382.374.37.878.573 1.415.573.52 0 1.019-.193 1.384-.531l.183-.17c2.248-2.454 5.448-3.864 8.784-3.864 3.564 0 6.909 1.569 9.18 4.3l.08.083c.371.329.85.508 1.349.508.542 0 1.051-.206 1.429-.574.738-.719.809-1.867.155-2.613l-.191-.176zm0 0" fill="#3A434E" sketch:type="MSShapeGroup"/></g></svg>
